X:1
T:Quanno nascette Ninno
T:Sant'Alfonso Maria de' Liguori (1696 - 1787)
T:Scritto con MuseScore, un software libero e gratuito: http://musescore.org/it
T:Scritto con MuseScore, un software libero e gratuito: http://musescore.org/it
Z:Scritto con MuseScore, un software libero e gratuito: http://musescore.org/it
%%score 1 2 3 4
L:1/8
Q:1/4=88
M:6/8
K:F
V:1 treble nm="Soprano"
V:2 treble nm="Alto"
V:3 bass nm="Tenor"
V:4 bass nm="Bass"
V:1
"^Andantino" c | c2 B A2 G | F3 F2 G | A2 B c>BA | G3- G2 A | G2 A G2 A | Bcd- d c B | A2 B A2 G | %8
 F3 A B c | B>A B G A B | A>G A A B c | B>A B GA B | A3- A2 G | A2 B c>BA | G3- G2 A | G2 A G2 A | %16
 Bcd- dc B | A2 B A2 G | F3- F2 :| %19
V:2
 A | A2 G F2 E | F3 F2 E | F2 G A>GF | E3- E2 F | E2 F E2 F | GAB- B A G | F2 G F2 E | F3 F G A | %9
w: Quan\-|do na\- scet\- te|Nin\- no a|Bet\- te\- lem- * *|me, * e\-|ra not\- te~~e pa\-|re\- _ _ _ _ a|mmie\- zo juor- *|no! Ma\- je le|
 G>F G E F G | F>E F F G A | G>F G EF G | F3- F2 E | F2 G A>GF | E3- E2 F | E2 F E2 F | GAB- BA G | %17
w: stel- * le lu\- ste\- re|bel- * le, se _ ve\-|det- * te\- ro~~ac- * cus\-|sì! * La|chiù Lu\- cen- * *|te _ jet\-|te~~a chiam\- mà li|Ma\- _ _ _ _ gi~~in|
 F2 G F2 E | F3- F2 :| %19
w: o\- ri\- en\- _|te. *|
V:3
 F, | C2 C C2 C | C3 C2 C | C2 C F,3 | C3- C2 C | C2 C C2 C | C3- CC C | C2 C C3 | C3 F, F, F, | %9
 C2 C C C C | C2 C F, F, F, | C2 C C C C | C3- C2 C | C2 C F,3 | C3- C2 C | C2 C C2 C | C3- C2 C | %17
 C2 C C3 | F,3- F,2 :| %19
V:4
 F, | F,2 F, F,2 F, | F,3 F,2 F, | F,2 F, F,3 | C,3- C,2 C, | C,2 C, C,2 C, | C,3- C,C, C, | %7
 C,2 C, C,3 | F,3 F, F, F, | C,2 C, C, C, C, | F,2 F, F, F, F, | C,2 C, C,2 C, | F,3- F,2 F, | %13
 F,2 F, F,3 | C,3- C,2 C, | C,2 C, C,2 C, | C,3- C,2 C, | C,2 C, C,3 | F,3- F,2 :| %19

